static/img/kroki/0c75ddcc8972814ceaddf2e06744e40e.svg

<?xml version="1.0" encoding="us-ascii" standalone="no"?><svg xmlns="http://www.w3.org/2000/svg" xmlns:xlink="http://www.w3.org/1999/xlink" contentStyleType="text/css" height="152px" preserveAspectRatio="none" style="width:211px;height:152px;" version="1.1" viewBox="0 0 211 152" width="211px" zoomAndPan="magnify"><defs/><g><!--class azure_virtual_wan--><g id="elem_azure_virtual_wan"><rect codeLine="22" fill="#3D176E" height="39.7891" id="azure_virtual_wan" rx="2.5" ry="2.5" style="stroke:#000D19;stroke-width:0.5;" width="197" x="7" y="7"/><ellipse cx="22" cy="26.8945" fill="#ADD1B2" rx="11" ry="11" style="stroke:#181818;stroke-width:1.0;"/><path d="M24.9688,32.5352 Q24.3906,32.832 23.75,32.9727 Q23.1094,33.1289 22.4063,33.1289 Q19.9063,33.1289 18.5781,31.4883 Q17.2656,29.832 17.2656,26.707 Q17.2656,23.582 18.5781,21.9258 Q19.9063,20.2695 22.4063,20.2695 Q23.1094,20.2695 23.75,20.4258 Q24.4063,20.582 24.9688,20.8789 L24.9688,23.5977 Q24.3438,23.0195 23.75,22.7539 Q23.1563,22.4727 22.5313,22.4727 Q21.1875,22.4727 20.5,23.5508 Q19.8125,24.6133 19.8125,26.707 Q19.8125,28.8008 20.5,29.8789 Q21.1875,30.9414 22.5313,30.9414 Q23.1563,30.9414 23.75,30.6758 Q24.3438,30.3945 24.9688,29.8164 L24.9688,32.5352 Z " fill="#000000"/><text fill="#D9B8FF" font-family="Helvetica" font-size="17" lengthAdjust="spacing" textLength="155" x="41" y="32.7798">azure_virtual_wan</text></g><!--class azure_vpn_site--><g id="elem_azure_vpn_site"><rect codeLine="24" fill="#3D176E" height="39.7891" id="azure_vpn_site" rx="2.5" ry="2.5" style="stroke:#000D19;stroke-width:0.5;" width="167" x="22" y="106.79"/><ellipse cx="37" cy="126.6845" fill="#ADD1B2" rx="11" ry="11" style="stroke:#181818;stroke-width:1.0;"/><path d="M39.9688,132.3252 Q39.3906,132.622 38.75,132.7627 Q38.1094,132.9189 37.4063,132.9189 Q34.9063,132.9189 33.5781,131.2783 Q32.2656,129.622 32.2656,126.497 Q32.2656,123.372 33.5781,121.7158 Q34.9063,120.0595 37.4063,120.0595 Q38.1094,120.0595 38.75,120.2158 Q39.4063,120.372 39.9688,120.6689 L39.9688,123.3877 Q39.3438,122.8095 38.75,122.5439 Q38.1563,122.2627 37.5313,122.2627 Q36.1875,122.2627 35.5,123.3408 Q34.8125,124.4033 34.8125,126.497 Q34.8125,128.5908 35.5,129.6689 Q36.1875,130.7314 37.5313,130.7314 Q38.1563,130.7314 38.75,130.4658 Q39.3438,130.1845 39.9688,129.6064 L39.9688,132.3252 Z " fill="#000000"/><text fill="#D9B8FF" font-family="Helvetica" font-size="17" lengthAdjust="spacing" textLength="125" x="56" y="132.5698">azure_vpn_site</text></g><!--link azure_virtual_wan to azure_vpn_site--><g id="link_azure_virtual_wan_azure_vpn_site"><path codeLine="26" d="M105.5,47.22 C105.5,64.36 105.5,83.27 105.5,100.41 " fill="none" id="azure_virtual_wan-to-azure_vpn_site" style="stroke:#1A83AF;stroke-width:2.0;"/><polygon fill="#1A83AF" points="105.5,106.41,109.5,97.41,105.5,101.41,101.5,97.41,105.5,106.41" style="stroke:#1A83AF;stroke-width:2.0;"/></g><!--SRC=[XT1HJy8m40VmTpv54vv9c4JPNapc4g8ln8XlnYotzSeQjdQvtbZ0-DrreAPi0g_z_zhxNmijKM1LyqvKM6L8RkGssjH0K8cOoBQ9BIs9iLAWPlD-kB26hu8bL2WUiTmYwnpwuhNG-SQWS-B6YnuWtwp9DaOUdsS2uxuZDEoff0JdOcRIMSFebP5H5YhLb_r7npCPpEzmm2n9f1yodKvb4FN9rL4Nz_uJAxr74VYVjhICWvg34GTriMKdl9A3HN_pinsVGKfjrkBMEtivTYA3T7A-Aa3QjjCAIkUFSOo4bdSr9eEjC0gbcl-BdyxXlFiv0Vk6CDrguWRAj0KZFaQVfrbjKgSP3y6GJzx6GHpEuiNxvBvtumi0]--></g></svg>

<svg xmlns="http://www.w3.org/2000/svg" width="211" height="152" viewBox="0 0 211 152"><rect width="197" height="39.789" x="7" y="7" fill="#3D176E" rx="2.5" ry="2.5" style="stroke:#000d19;stroke-width:.5"/><circle cx="22" cy="26.895" r="11" fill="#ADD1B2" style="stroke:#181818;stroke-width:1"/><path d="M24.969 32.535q-.578.297-1.219.438-.64.156-1.344.156-2.5 0-3.828-1.64-1.312-1.657-1.312-4.782t1.312-4.781q1.328-1.656 3.828-1.656.703 0 1.344.156.656.156 1.219.453v2.719q-.625-.578-1.219-.844-.594-.281-1.219-.281-1.343 0-2.031 1.078-.687 1.062-.687 3.156t.687 3.172q.688 1.062 2.031 1.062.625 0 1.219-.265.594-.281 1.219-.86z"/><text x="41" y="32.78" fill="#D9B8FF" font-family="Helvetica" font-size="17" textLength="155">azure_virtual_wan</text><rect width="167" height="39.789" x="22" y="106.79" fill="#3D176E" rx="2.5" ry="2.5" style="stroke:#000d19;stroke-width:.5"/><circle cx="37" cy="126.684" r="11" fill="#ADD1B2" style="stroke:#181818;stroke-width:1"/><path d="M39.969 132.325q-.578.297-1.219.438-.64.156-1.344.156-2.5 0-3.828-1.64-1.312-1.657-1.312-4.782t1.312-4.781q1.328-1.656 3.828-1.656.703 0 1.344.156.656.156 1.219.453v2.719q-.625-.579-1.219-.844-.594-.281-1.219-.281-1.343 0-2.031 1.078-.687 1.062-.687 3.156t.687 3.172q.688 1.062 2.031 1.062.625 0 1.219-.265.594-.281 1.219-.86z"/><text x="56" y="132.57" fill="#D9B8FF" font-family="Helvetica" font-size="17" textLength="125">azure_vpn_site</text><path fill="none" d="M105.5 47.22v53.19" style="stroke:#1a83af;stroke-width:2"/><path fill="#1A83AF" d="m105.5 106.41 4-9-4 4-4-4z" style="stroke:#1a83af;stroke-width:2"/></svg>
